X: 1
T: Troika
O: Russian
M: 4/4
L: 1/8
K: Dm
[| "Dm"za-"A7"ag "Dm"f2 "A7"e2 | "Dm"d2 "A7"^c2 "Dm"d2 "A7"A2 \
|  "Dm"za-"A7"ag "Dm"f2 "A7"e2 | "Dm"d2 "A7"^c2 "Dm"d2 "C7"=c2 |
|| "C7"zc'-c'b "F"b2a2 | "A7"za-ag "Dm"g2f2 \
|  "Gm"zefg "Dm"a2A2 | "A7"fed^c "Dm"d2 z2 ||
|| "Dm"f4- ffed | "A7"e4- eed^c \
|  "Dm"d4- dded | "A7"^c2A2 A4 |
|| "Dm"f4- ffef | "Gm"g4- ggfg \
|  "Dm"a3g "A7"f2e2 | "Dm"d2 "A7"^c2 "Dm"d2 z2 |]
%%sep 5 5 5cm
